X:1
T:Nobody Like Jesus
T:Nobody Like Jesus
T:Charles Hutchinson Gabriel
T:Edith L. Mapes, 1911
T:Public Domain Courtesy of the Cyber Hymnal™
T:Public Domain Courtesy of the Cyber Hymnal™
C:Charles Hutchinson Gabriel
Z:Public Domain
Z:Courtesy of the Cyber Hymnal™
%%score ( 1 2 ) ( 3 4 )
L:1/8
Q:1/4=88
M:6/8
K:G
V:1 treble 
V:2 treble 
V:3 bass 
V:4 bass 
V:1
 [B,D] | [B,D][B,E][B,F] [B,A]2 [B,G] | [CF][CG][CA] [DB]2 z | [^CB][CE][CF] [CG][CF][CG] | %4
w: 1.~Some-|times se- cret sins creep|in- to my heart,|No- bo- dy sees them but|
w: 2.~Some-|times there are tears that|must not be shed,|No- bo- dy knows it but|
w: 3.~Some-|times an- gry thoughts are|al- most ex- pressed,|No- bo- dy hears them but|
w: 4.~Some-|times I am weak, and|wan- der a- stray,|No- bo- dy strength- ens like|
w: 5.~Some-|times shut a- way from|all held most dear,|No- bo- dy with me but|
 A3 ([CE][C_E]) [A,CDd]2 [CD] | [B,D][B,E][B,F] [B,A]2 [B,G] | [CF][CG][CA] [DB]2 z | %7
w: Je- sus; * But when|* I con- fess, He|* bids them de-|
w: Je- sus; * In sick-|* ness and grief He|* pil- lows my|
w: Je- sus; * His gen-|* tle re- straint soon|* has them sup-|
w: Je- sus; * He pa-|* tient- ly leads me|* back to the|
w: Je- sus; * My souls|* no- thing lacks, no|* e- vil I|
 [Dd][DG][Ec] [DB]>[B,D][DB] | [CA]3 [B,G]2 z | [B,d][B,G][CA] [DB][Ec][DB] | [CE]3 [DE]2 z | %11
w: part, No- bo- dy cleans- es|like Je-|sus; No- bo- dy cleans- es|like Je-|
w: head, No- bo- dy com- forts|like Je-|sus; No- bo- dy com- forts|like Je-|
w: pressed, No- bo- dy qui- ets|like Je-|sus; No- bo- dy qui- ets|like Je-|
w: way, No- bo- dy par- dons|like Je-|sus; No- bo- dy par- dons|like Je-|
w: fear, No- bo- dy loves me|like Je-|sus; No- bo- dy loves me|like Je-|
 [Ec][DB][CEA] E[DF][^CG] | [CDA]3 D2 [CD] | [B,D][B,E][B,F] [B,A]2 [B,G] | [CF][CG][CA] [DB]2 z | %15
w: sus, No- bo- dy cleans- es|like Je- sus;|But when I con- fess,|He bids them de-|
w: sus, No- bo- dy com- forts|like Je- sus;|In sick- ness and grief|He pil- lows my|
w: sus, No- bo- dy qui- ets|like Je- sus;|His gen- tle re- straint|soon has them sup-|
w: sus, No- bo- dy par- dons|like Je- sus;|He pa- tient- ly leads|me back to the|
w: sus, No- bo- dy loves me|like Je- sus;|My souls no- thing lacks,|no e- vil I|
 [Dd][DG][Ec] [DB]>[B,D][DB] | [CA]3 [B,G]2 |] %17
w: part, No- bo- dy cleans- es|like Je-|
w: head, No- bo- dy com- forts|like Je-|
w: pressed, No- bo- dy qui- ets|like Je-|
w: way, No- bo- dy par- dons|like Je-|
w: fear, No- bo- dy loves me|like Je-|
V:2
 x | x6 | x6 | x6 | [C-F] x7 | x6 | x6 | x6 | x6 | x6 | x6 | x3 E x2 | x3 D2 x | x6 | x6 | x6 | %16
 x5 |] %17
V:3
 z | G,3 D,3 | A,2 D, G,2 x | G,3 E,3 | (D,E,^E,) (F,/=E,/D,/C,/) (B,,/A,,/) x2 | G,3 D,3 | %6
 A,2 D, G,3 | G,3 [D,-G,]3 | (F,E,[D,-F,]) [G,,D,]2 z | G,6 | %10
 ([C,G,][C,G,][C,G,]) ([B,,^G,][B,,G,][B,,G,]) | [A,,A,][B,,^G,][C,A,-] A,2 x | %12
 F,3 ([C,A,][B,,G,])[A,,F,] | G,3 D,3 | A,2 D, G,3 | G,3- [D,-G,]3 | (F,E,[D,-F,]) [G,,D,]2 |] %17
V:4
 x | G,,6- | G,,3- (G,,D,B,,) | A,,6 | x8 | G,,6- | G,,3 (A,,E,D,) | B,,2 C, x3 | D,3 x3 | x6 | %10
 x6 | x3 ^C,D,E, | (D,E,D,) x3 | G,,6- | G,,3 (G,,E,D,) | B,,2 C, x3 | D,3 x2 |] %17

